src/assets/svg/logo.svg

<svg xmlns="http://www.w3.org/2000/svg" width="1024" height="1024" fill="none" viewBox="80 80 864 864"><defs><mask id="cutout"><path fill="#fff" d="M0 0h1024v1024H0z"/><circle cx="512" cy="512" r="135" fill="#000"/></mask></defs><g fill="#eaeaea" mask="url(#cutout)"><rect width="30" height="360" x="497" y="80" rx="4"/><rect width="30" height="360" x="497" y="80" rx="4" transform="rotate(10 512 512)"/><rect width="30" height="360" x="497" y="80" rx="4" transform="rotate(20 512 512)"/><rect width="30" height="360" x="497" y="80" rx="4" transform="rotate(30 512 512)"/><rect width="30" height="360" x="497" y="80" rx="4" transform="rotate(40 512 512)"/><rect width="30" height="360" x="497" y="80" rx="4" transform="rotate(50 512 512)"/><rect width="30" height="360" x="497" y="80" rx="4" transform="rotate(60 512 512)"/><rect width="30" height="360" x="497" y="80" rx="4" transform="rotate(70 512 512)"/><rect width="30" height="360" x="497" y="80" rx="4" transform="rotate(80 512 512)"/><rect width="30" height="360" x="497" y="80" rx="4" transform="rotate(90 512 512)"/><rect width="30" height="360" x="497" y="80" rx="4" transform="rotate(100 512 512)"/><rect width="30" height="360" x="497" y="80" rx="4" transform="rotate(110 512 512)"/><rect width="30" height="360" x="497" y="80" rx="4" transform="rotate(120 512 512)"/><rect width="30" height="360" x="497" y="80" rx="4" transform="rotate(130 512 512)"/><rect width="30" height="360" x="497" y="80" rx="4" transform="rotate(140 512 512)"/><rect width="30" height="360" x="497" y="80" rx="4" transform="rotate(150 512 512)"/><rect width="30" height="360" x="497" y="80" rx="4" transform="rotate(160 512 512)"/><rect width="30" height="360" x="497" y="80" rx="4" transform="rotate(170 512 512)"/><rect width="30" height="360" x="497" y="80" rx="4" transform="rotate(180 512 512)"/><rect width="30" height="360" x="497" y="80" rx="4" transform="rotate(190 512 512)"/><rect width="30" height="360" x="497" y="80" rx="4" transform="rotate(200 512 512)"/><rect width="30" height="360" x="497" y="80" rx="4" transform="rotate(210 512 512)"/><rect width="30" height="360" x="497" y="80" rx="4" transform="rotate(220 512 512)"/><rect width="30" height="360" x="497" y="80" rx="4" transform="rotate(230 512 512)"/><rect width="30" height="360" x="497" y="80" rx="4" transform="rotate(240 512 512)"/><rect width="30" height="360" x="497" y="80" rx="4" transform="rotate(250 512 512)"/><rect width="30" height="360" x="497" y="80" rx="4" transform="rotate(260 512 512)"/><rect width="30" height="360" x="497" y="80" rx="4" transform="rotate(270 512 512)"/><rect width="30" height="360" x="497" y="80" rx="4" transform="rotate(280 512 512)"/><rect width="30" height="360" x="497" y="80" rx="4" transform="rotate(290 512 512)"/><rect width="30" height="360" x="497" y="80" rx="4" transform="rotate(300 512 512)"/><rect width="30" height="360" x="497" y="80" rx="4" transform="rotate(310 512 512)"/><rect width="30" height="360" x="497" y="80" rx="4" transform="rotate(320 512 512)"/><rect width="30" height="360" x="497" y="80" rx="4" transform="rotate(330 512 512)"/><rect width="30" height="360" x="497" y="80" rx="4" transform="rotate(340 512 512)"/><rect width="30" height="360" x="497" y="80" rx="4" transform="rotate(350 512 512)"/></g><circle cx="512" cy="512" r="135" fill="#000"/><path fill="#f2f2f2" d="M433 620V428h41l38 76 38-76h41v192h-43V501l-28 57h-16l-28-57v119z"/></svg>

<svg width="1024" height="1024" viewBox="80 80 864 864" fill="none" xmlns="http://www.w3.org/2000/svg">
  <defs>
    <mask id="cutout">
      <rect width="1024" height="1024" fill="white"/>
      <circle cx="512" cy="512" r="135" fill="black"/>
    </mask>
  </defs>

  <!-- Rays -->
  <g mask="url(#cutout)" fill="#EAEAEA">
    <rect x="497" y="80" width="30" height="360" rx="4"/>
    <rect x="497" y="80" width="30" height="360" rx="4" transform="rotate(10 512 512)"/>
    <rect x="497" y="80" width="30" height="360" rx="4" transform="rotate(20 512 512)"/>
    <rect x="497" y="80" width="30" height="360" rx="4" transform="rotate(30 512 512)"/>
    <rect x="497" y="80" width="30" height="360" rx="4" transform="rotate(40 512 512)"/>
    <rect x="497" y="80" width="30" height="360" rx="4" transform="rotate(50 512 512)"/>
    <rect x="497" y="80" width="30" height="360" rx="4" transform="rotate(60 512 512)"/>
    <rect x="497" y="80" width="30" height="360" rx="4" transform="rotate(70 512 512)"/>
    <rect x="497" y="80" width="30" height="360" rx="4" transform="rotate(80 512 512)"/>
    <rect x="497" y="80" width="30" height="360" rx="4" transform="rotate(90 512 512)"/>
    <rect x="497" y="80" width="30" height="360" rx="4" transform="rotate(100 512 512)"/>
    <rect x="497" y="80" width="30" height="360" rx="4" transform="rotate(110 512 512)"/>
    <rect x="497" y="80" width="30" height="360" rx="4" transform="rotate(120 512 512)"/>
    <rect x="497" y="80" width="30" height="360" rx="4" transform="rotate(130 512 512)"/>
    <rect x="497" y="80" width="30" height="360" rx="4" transform="rotate(140 512 512)"/>
    <rect x="497" y="80" width="30" height="360" rx="4" transform="rotate(150 512 512)"/>
    <rect x="497" y="80" width="30" height="360" rx="4" transform="rotate(160 512 512)"/>
    <rect x="497" y="80" width="30" height="360" rx="4" transform="rotate(170 512 512)"/>
    <rect x="497" y="80" width="30" height="360" rx="4" transform="rotate(180 512 512)"/>
    <rect x="497" y="80" width="30" height="360" rx="4" transform="rotate(190 512 512)"/>
    <rect x="497" y="80" width="30" height="360" rx="4" transform="rotate(200 512 512)"/>
    <rect x="497" y="80" width="30" height="360" rx="4" transform="rotate(210 512 512)"/>
    <rect x="497" y="80" width="30" height="360" rx="4" transform="rotate(220 512 512)"/>
    <rect x="497" y="80" width="30" height="360" rx="4" transform="rotate(230 512 512)"/>
    <rect x="497" y="80" width="30" height="360" rx="4" transform="rotate(240 512 512)"/>
    <rect x="497" y="80" width="30" height="360" rx="4" transform="rotate(250 512 512)"/>
    <rect x="497" y="80" width="30" height="360" rx="4" transform="rotate(260 512 512)"/>
    <rect x="497" y="80" width="30" height="360" rx="4" transform="rotate(270 512 512)"/>
    <rect x="497" y="80" width="30" height="360" rx="4" transform="rotate(280 512 512)"/>
    <rect x="497" y="80" width="30" height="360" rx="4" transform="rotate(290 512 512)"/>
    <rect x="497" y="80" width="30" height="360" rx="4" transform="rotate(300 512 512)"/>
    <rect x="497" y="80" width="30" height="360" rx="4" transform="rotate(310 512 512)"/>
    <rect x="497" y="80" width="30" height="360" rx="4" transform="rotate(320 512 512)"/>
    <rect x="497" y="80" width="30" height="360" rx="4" transform="rotate(330 512 512)"/>
    <rect x="497" y="80" width="30" height="360" rx="4" transform="rotate(340 512 512)"/>
    <rect x="497" y="80" width="30" height="360" rx="4" transform="rotate(350 512 512)"/>
  </g>

  <!-- Center Circle -->
  <circle cx="512" cy="512" r="135" fill="black"/>

  <!-- Letter M -->
  <path d="M433 620V428H474L512 504L550 428H591V620H548V501L520 558H504L476 501V620H433Z"
        fill="#F2F2F2"/>
</svg>
